X: 25717
T: Mary Cross The Mersey
R: jig
M: 6/8
K: Dmajor
|:A.F/.G/A =c2A|BGB AFD|A.F/.G/A d=cA|GEA D3:|
|:d.B/.c/d cAF|BGE AFD|d.g/.f/d cAF|BGE D3:|

